X:1
T:Okeechobee Spanish Grass - #129
T:actually - Spanish Grass
C:Ed Shelton
M:4/4
L:1/4
K:D
%%staves{RH1}
V:RH1 clef=treble
|:z "A7"A B c|"D"d4|c4|B4|A4|F4
|F D E F|"A"G4-|G4|e4|d4|c4|B4
|"A7"A4|B2 A2|"D"F4|"A7"F A B c|"D"d4|c4
|B4|A4|1F4|F D E F|"G"G4-|G4|
|"G"D4|E2 D2|"D"F4
|A2 F2|"A"E4|F2 E2|D4:|
|2"D7"d4|e2 d2|B2 B2|B4
|"G"D4|E2 D2|"D"F4
|A2 F2|"A"E4|F2 E2|D4||
